OJJO/img/footer/footer-vk.svg

<svg width="24" height="24" viewBox="0 0 24 24" fill="none" xmlns="http://www.w3.org/2000/svg">
<g clip-path="url(#clip0_2_198)">
<path fill-rule="evenodd" clip-rule="evenodd" d="M21.3624 14.7577C21.3624 14.7577 23.3028 16.6741 23.7828 17.5609C23.7922 17.5736 23.7994 17.5878 23.8044 17.6029C24 17.9305 24.048 18.1873 23.952 18.3769C23.79 18.6901 23.2416 18.8473 23.0556 18.8605H19.626C19.3872 18.8605 18.8904 18.7981 18.2856 18.3805C17.8236 18.0577 17.364 17.5261 16.9188 17.0065C16.254 16.2349 15.6792 15.5653 15.0972 15.5653C15.0237 15.5651 14.9507 15.5773 14.8812 15.6013C14.4408 15.7405 13.8816 16.3681 13.8816 18.0397C13.8816 18.5629 13.4688 18.8605 13.1796 18.8605H11.6088C11.0736 18.8605 8.28722 18.6733 5.81642 16.0681C2.78882 12.8785 0.0696165 6.48005 0.0432165 6.42365C-0.125984 6.00965 0.229217 5.78405 0.613217 5.78405H4.07642C4.54082 5.78405 4.69202 6.06485 4.79762 6.31685C4.92002 6.60605 5.37362 7.76285 6.11762 9.06245C7.32242 11.1768 8.06282 12.0373 8.65442 12.0373C8.76556 12.0376 8.87483 12.0086 8.97122 11.9533C9.74402 11.5285 9.60002 8.76845 9.56402 8.19965C9.56402 8.08925 9.56282 6.96725 9.16682 6.42485C8.88362 6.03605 8.40122 5.88485 8.10962 5.82965C8.18762 5.71685 8.35322 5.54405 8.56562 5.44205C9.09482 5.17805 10.0512 5.13965 11.0004 5.13965H11.5272C12.5568 5.15405 12.8232 5.22005 13.1976 5.31485C13.9512 5.49485 13.9656 5.98325 13.8996 7.64645C13.8804 8.12165 13.86 8.65685 13.86 9.28685C13.86 9.42125 13.854 9.57125 13.854 9.72365C13.8312 10.5768 13.8012 11.5381 14.4036 11.9329C14.4817 11.9815 14.572 12.0073 14.664 12.0072C14.8728 12.0072 15.498 12.0072 17.1936 9.09725C17.9376 7.81205 18.5136 6.29645 18.5532 6.18245C18.5868 6.11885 18.6876 5.94005 18.81 5.86805C18.8971 5.82172 18.9946 5.79858 19.0932 5.80085H23.1672C23.6112 5.80085 23.9124 5.86805 23.9712 6.03605C24.0696 6.30845 23.952 7.14005 22.092 9.65525C21.7788 10.074 21.504 10.4365 21.2628 10.7533C19.5768 12.9661 19.5768 13.0777 21.3624 14.7577Z" fill="#333333"/>
</g>
<defs>
<clipPath id="clip0_2_198">
<rect width="24" height="24" fill="white"/>
</clipPath>
</defs>
</svg>

<svg width="24" height="24" fill="none" xmlns="http://www.w3.org/2000/svg"><g clip-path="url(#clip0_2_198)"><path fill-rule="evenodd" clip-rule="evenodd" d="M21.362 14.758s1.94 1.916 2.42 2.803a.15.15 0 01.022.042c.196.327.244.584.148.774-.162.313-.71.47-.896.483h-3.43c-.239 0-.736-.062-1.34-.48-.462-.322-.922-.854-1.367-1.373-.665-.772-1.24-1.442-1.822-1.442a.656.656 0 00-.216.036c-.44.14-1 .767-1 2.439 0 .523-.412.82-.701.82h-1.571c-.535 0-3.322-.187-5.793-2.792C2.79 12.878.07 6.48.043 6.424c-.169-.414.186-.64.57-.64h3.463c.465 0 .616.28.722.533.122.289.576 1.446 1.32 2.745 1.204 2.115 1.945 2.975 2.536 2.975a.63.63 0 00.317-.084c.773-.425.629-3.185.593-3.753 0-.11-.001-1.233-.397-1.775-.283-.389-.766-.54-1.057-.595.078-.113.243-.286.456-.388.529-.264 1.485-.302 2.434-.302h.527c1.03.014 1.296.08 1.67.175.754.18.769.668.703 2.331-.02.476-.04 1.01-.04 1.64 0 .135-.006.285-.006.438-.023.853-.053 1.814.55 2.209a.492.492 0 00.26.074c.209 0 .834 0 2.53-2.91.744-1.285 1.32-2.8 1.36-2.915.033-.063.134-.242.256-.314a.575.575 0 01.283-.067h4.074c.444 0 .745.067.804.235.099.272-.019 1.104-1.879 3.62-.313.418-.588.78-.83 1.097-1.685 2.213-1.685 2.325.1 4.005z" fill="#333"/></g><defs><clipPath id="clip0_2_198"><path fill="#fff" d="M0 0h24v24H0z"/></clipPath></defs></svg>
